X: 40489
T: Tomeen O'Dea's
R: reel
M: 4/4
K: Gmajor
BGAG EGDG|EAAG ABGA|BGAG EGDG|EGGF G3A|
B2AG EGDG|EAAG ~A2GA|BGAG EGDG|EGGF G3D||
GA (3Bcd edBA|GBdB cAAB|GA (3Bcd edBe|dBAc BGGF|
G2 (3Bcd edBA|GBdB cAAB|GA (3Bcd edBd|(3efg (3fga gedc||

